icons/cache-16.svg

<svg width="16" height="16" viewBox="0 0 16 16" fill="none" xmlns="http://www.w3.org/2000/svg">
<path fill-rule="evenodd" clip-rule="evenodd" d="M2.5 5.72448C2.74115 5.87432 3.00279 6.0097 3.27853 6.13103C4.52529 6.67961 6.19519 7 8 7C9.80481 7 11.4747 6.67961 12.7215 6.13103C13.3438 5.8572 13.8943 5.51176 14.2995 5.09018C14.7084 4.6649 15 4.12635 15 3.5C15 2.87365 14.7084 2.3351 14.2995 1.90982C13.8943 1.48824 13.3438 1.1428 12.7215 0.86897C11.4747 0.320393 9.80481 0 8 0C6.19519 0 4.52529 0.320393 3.27853 0.86897C2.6562 1.1428 2.10572 1.48824 1.70046 1.90982C1.29164 2.3351 1 2.87365 1 3.5V12.5C1 13.1264 1.29164 13.6649 1.70046 14.0902C2.10572 14.5118 2.6562 14.8572 3.27853 15.131C4.52529 15.6796 6.19519 16 8 16C8.45012 16 8.89041 15.9801 9.31672 15.942C9.72929 15.9052 10.0339 15.5408 9.99703 15.1283C9.96018 14.7157 9.59585 14.4111 9.18328 14.448C8.80181 14.482 8.40605 14.5 8 14.5C6.35303 14.5 4.89793 14.2048 3.88264 13.7581C3.37394 13.5342 3.00913 13.2871 2.78185 13.0507C2.55813 12.8179 2.5 12.633 2.5 12.5V10.2237C2.6641 10.3261 2.83439 10.4197 3.00689 10.5046C4.1085 11.047 5.58887 11.394 7.21059 11.4794C7.62423 11.5011 7.9772 11.1835 7.99896 10.7698C8.02073 10.3562 7.70305 10.0032 7.28941 9.98144C5.81296 9.90375 4.54333 9.58913 3.66949 9.15887C2.73787 8.70017 2.5 8.24776 2.5 8V5.72448ZM2.5 3.5C2.5 3.36696 2.55813 3.18206 2.78185 2.94934C3.00913 2.7129 3.37394 2.46577 3.88264 2.24194C4.89793 1.79522 6.35303 1.5 8 1.5C9.64697 1.5 11.1021 1.79522 12.1174 2.24194C12.6261 2.46577 12.9909 2.7129 13.2182 2.94934C13.4419 3.18206 13.5 3.36696 13.5 3.5C13.5 3.63304 13.4419 3.81794 13.2182 4.05066C12.9909 4.2871 12.6261 4.53423 12.1174 4.75806C11.1021 5.20478 9.64697 5.5 8 5.5C6.35303 5.5 4.89793 5.20478 3.88264 4.75806C3.37394 4.53423 3.00913 4.2871 2.78185 4.05066C2.55813 3.81794 2.5 3.63304 2.5 3.5Z" fill="black"/>
<path d="M14.4909 7.58231C14.5293 7.41126 14.4441 7.23638 14.2857 7.16123C14.1273 7.08607 13.938 7.1307 13.8299 7.2687L10.2049 11.8937C10.1163 12.0066 10.1 12.1601 10.1628 12.2892C10.2256 12.4182 10.3565 12.5 10.5 12.5H12.627L12.0081 15.4223C11.9718 15.5941 12.0595 15.7682 12.2192 15.8411C12.3789 15.9141 12.5679 15.8664 12.6739 15.7265L15.7989 11.6015C15.8849 11.488 15.8992 11.3356 15.8358 11.2081C15.7725 11.0806 15.6424 11 15.5 11H13.7222L14.4909 7.58231Z" fill="black"/>
</svg>

<svg xmlns="http://www.w3.org/2000/svg" width="16" height="16" viewBox="0 0 16 16"><path fill-rule="evenodd" d="M2.5 5.724c.241.15.503.286.779.407C4.525 6.68 6.195 7 8 7c1.805 0 3.475-.32 4.722-.869.622-.274 1.172-.62 1.578-1.04.408-.426.7-.965.7-1.591s-.292-1.165-.7-1.59c-.406-.422-.956-.767-1.579-1.041C11.476.32 9.806 0 8 0 6.195 0 4.525.32 3.279.869c-.623.274-1.173.62-1.579 1.04-.408.426-.7.965-.7 1.591v9c0 .626.292 1.165.7 1.59.406.422.956.767 1.579 1.041C4.525 15.68 6.195 16 8 16c.45 0 .89-.02 1.317-.058a.75.75 0 10-.134-1.494c-.381.034-.777.052-1.183.052-1.647 0-3.102-.295-4.117-.742-.51-.224-.874-.47-1.101-.707-.224-.233-.282-.418-.282-.551v-2.276c.164.102.334.196.507.28 1.102.543 2.582.89 4.204.975a.75.75 0 00.078-1.498c-1.476-.077-2.746-.392-3.62-.822C2.738 8.7 2.5 8.248 2.5 8V5.724zm0-2.224c0-.133.058-.318.282-.55.227-.237.592-.484 1.1-.708C4.899 1.795 6.354 1.5 8 1.5c1.647 0 3.102.295 4.117.742.51.224.874.47 1.101.707.224.233.282.418.282.551 0 .133-.058.318-.282.55-.227.237-.592.484-1.1.708C11.101 5.205 9.646 5.5 8 5.5c-1.647 0-3.102-.295-4.117-.742-.51-.224-.874-.47-1.101-.707-.224-.233-.282-.418-.282-.551z"/><path d="M14.49 7.582a.375.375 0 00-.66-.313l-3.625 4.625a.375.375 0 00.295.606h2.127l-.619 2.922a.375.375 0 00.666.304l3.125-4.125A.375.375 0 0015.5 11h-1.778l.769-3.418z"/></svg>
